flaticon/interaction/user-35.svg

<svg xmlns="http://www.w3.org/2000/svg" width="32" height="32" viewBox="0 0 24 24">
    <path d="M23.28125 18.40625C23.058594 18.367188 22.851562 18.503906 22.808594 18.71875 22.359375 20.921875 20.628906 22.398438 18.5 22.398438 16.488281 22.398438 14.722656 21.078125 14.121094 19.199219L16 19.199219 16 18.398438 12.800781 18.398438 12.800781 21.601562 13.601562 21.601562 13.601562 20.0625C14.46875 21.933594 16.367188 23.199219 18.5 23.199219 21.019531 23.199219 23.066406 21.464844 23.59375 18.878906 23.636719 18.664062 23.496094 18.453125 23.28125 18.40625zM23.199219 13.601562L23.199219 15.324219C22.300781 13.542969 20.519531 12.398438 18.5 12.398438 16.054688 12.398438 13.882812 14 13.214844 16.289062 13.15625 16.5 13.277344 16.722656 13.488281 16.785156 13.699219 16.847656 13.921875 16.722656 13.984375 16.511719 14.542969 14.59375 16.441406 13.199219 18.5 13.199219 20.324219 13.199219 21.925781 14.304688 22.632812 16L20.800781 16 20.800781 16.800781 24 16.800781 24 13.601562zM23.199219 13.601562"/>
    <path d="M 11 22 C 10.746094 22 10.492188 21.988281 10.242188 21.96875 C 10.199219 21.964844 10.15625 21.960938 10.113281 21.957031 C 9.859375 21.9375 9.605469 21.90625 9.355469 21.867188 C 9.34375 21.863281 9.332031 21.863281 9.320312 21.859375 C 8.792969 21.769531 8.273438 21.640625 7.765625 21.472656 C 7.75 21.464844 7.734375 21.460938 7.71875 21.457031 C 7.46875 21.371094 7.21875 21.273438 6.972656 21.171875 C 6.972656 21.167969 6.96875 21.167969 6.96875 21.167969 C 6.738281 21.066406 6.511719 20.957031 6.285156 20.839844 C 6.257812 20.824219 6.226562 20.8125 6.199219 20.796875 C 5.996094 20.6875 5.792969 20.570312 5.597656 20.445312 C 5.539062 20.410156 5.480469 20.371094 5.421875 20.335938 C 5.242188 20.214844 5.0625 20.089844 4.886719 19.960938 C 4.871094 19.945312 4.851562 19.933594 4.835938 19.917969 C 4.847656 19.910156 4.859375 19.90625 4.875 19.898438 L 8.035156 18.171875 C 8.582031 17.875 8.917969 17.304688 8.917969 16.6875 L 8.917969 15.246094 L 8.824219 15.136719 C 8.816406 15.125 7.953125 14.074219 7.625 12.648438 L 7.589844 12.488281 L 7.453125 12.402344 C 7.261719 12.277344 7.144531 12.070312 7.144531 11.84375 L 7.144531 10.425781 C 7.144531 10.242188 7.222656 10.066406 7.367188 9.9375 L 7.5 9.820312 L 7.5 7.589844 L 7.496094 7.539062 C 7.496094 7.527344 7.378906 6.566406 8.054688 5.792969 C 8.632812 5.136719 9.625 4.800781 11 4.800781 C 12.371094 4.800781 13.359375 5.132812 13.9375 5.785156 C 14.613281 6.550781 14.503906 7.53125 14.503906 7.539062 L 14.5 9.820312 L 14.632812 9.9375 C 14.777344 10.066406 14.855469 10.242188 14.855469 10.425781 L 14.855469 11.84375 C 14.855469 12.128906 14.660156 12.390625 14.382812 12.476562 C 14.171875 12.539062 14.054688 12.765625 14.117188 12.976562 C 14.183594 13.1875 14.40625 13.304688 14.617188 13.238281 C 15.238281 13.046875 15.65625 12.488281 15.65625 11.84375 L 15.65625 10.425781 C 15.65625 10.082031 15.527344 9.746094 15.300781 9.480469 L 15.300781 7.613281 C 15.320312 7.40625 15.394531 6.234375 14.546875 5.269531 C 13.808594 4.425781 12.617188 4 11 4 C 9.382812 4 8.191406 4.425781 7.453125 5.265625 C 6.605469 6.234375 6.679688 7.40625 6.699219 7.613281 L 6.699219 9.480469 C 6.472656 9.742188 6.34375 10.082031 6.34375 10.425781 L 6.34375 11.84375 C 6.34375 12.285156 6.542969 12.695312 6.882812 12.972656 C 7.207031 14.242188 7.871094 15.203125 8.117188 15.527344 L 8.117188 16.6875 C 8.117188 17.011719 7.941406 17.3125 7.652344 17.46875 L 4.492188 19.195312 C 4.390625 19.25 4.289062 19.3125 4.191406 19.386719 C 2.109375 17.515625 0.800781 14.808594 0.800781 11.800781 C 0.800781 6.175781 5.375 1.601562 11 1.601562 C 16.625 1.601562 21.199219 6.175781 21.199219 11.800781 C 21.199219 12.019531 21.378906 12.199219 21.601562 12.199219 C 21.820312 12.199219 22 12.019531 22 11.800781 C 22 5.734375 17.066406 0.800781 11 0.800781 C 4.933594 0.800781 0 5.734375 0 11.800781 C 0 15.003906 1.378906 17.890625 3.570312 19.902344 L 3.558594 19.914062 L 3.917969 20.214844 C 3.941406 20.234375 3.964844 20.25 3.988281 20.269531 C 4.179688 20.425781 4.375 20.574219 4.574219 20.71875 C 4.640625 20.765625 4.703125 20.8125 4.769531 20.859375 C 4.984375 21.003906 5.203125 21.144531 5.425781 21.277344 C 5.476562 21.304688 5.523438 21.335938 5.574219 21.363281 C 5.820312 21.5 6.070312 21.632812 6.324219 21.753906 C 6.34375 21.761719 6.363281 21.769531 6.382812 21.78125 C 7.21875 22.167969 8.109375 22.453125 9.042969 22.621094 C 9.066406 22.625 9.09375 22.628906 9.117188 22.636719 C 9.40625 22.683594 9.699219 22.726562 9.996094 22.75 C 10.03125 22.753906 10.066406 22.757812 10.105469 22.761719 C 10.398438 22.785156 10.699219 22.800781 11 22.800781 C 11.222656 22.800781 11.398438 22.621094 11.398438 22.398438 C 11.398438 22.179688 11.222656 22 11 22 Z M 11 22"/>
</svg>

<svg xmlns="http://www.w3.org/2000/svg" width="32" height="32" viewBox="0 0 24 24">
    <path d="M23.281 18.406a.402.402 0 0 0-.472.313c-.45 2.203-2.18 3.68-4.309 3.68a4.614 4.614 0 0 1-4.379-3.2H16v-.8h-3.2v3.203h.802v-1.54A5.417 5.417 0 0 0 18.5 23.2c2.52 0 4.566-1.734 5.094-4.32a.406.406 0 0 0-.313-.473zm0 0M23.2 13.602v1.722c-.9-1.781-2.68-2.926-4.7-2.926-2.445 0-4.617 1.602-5.285 3.891a.405.405 0 0 0 .273.496.402.402 0 0 0 .496-.273c.559-1.918 2.457-3.313 4.516-3.313 1.824 0 3.426 1.106 4.133 2.801H20.8v.8H24v-3.198zm0 0"/>
    <path d="M11 22a9.75 9.75 0 0 1-.887-.043 9.78 9.78 0 0 1-.758-.09c-.011-.004-.023-.004-.035-.008a10.639 10.639 0 0 1-1.554-.386c-.016-.008-.032-.012-.047-.016-.25-.086-.5-.184-.746-.285 0-.004-.004-.004-.004-.004-.23-.102-.457-.211-.684-.328-.027-.016-.058-.027-.086-.043a9.287 9.287 0 0 1-.601-.352c-.059-.035-.118-.074-.176-.11-.18-.12-.36-.245-.535-.374-.016-.016-.035-.027-.051-.043.012-.008.023-.012.039-.02l3.16-1.726c.547-.297.883-.867.883-1.485v-1.44l-.094-.11c-.008-.012-.87-1.063-1.199-2.489l-.035-.16-.137-.086a.667.667 0 0 1-.308-.558v-1.418c0-.184.078-.36.222-.489L7.5 9.82V7.59l-.004-.05c0-.013-.117-.974.559-1.747.578-.656 1.57-.992 2.945-.992 1.371 0 2.36.332 2.938.984.675.766.566 1.746.566 1.754L14.5 9.82l.133.117a.651.651 0 0 1 .222.489v1.418a.673.673 0 0 1-.472.633.398.398 0 1 0 .234.762 1.455 1.455 0 0 0 1.04-1.395v-1.418c0-.344-.13-.68-.356-.946V7.613c.02-.207.094-1.379-.754-2.343C13.809 4.426 12.617 4 11 4c-1.617 0-2.809.426-3.547 1.266-.848.968-.773 2.14-.754 2.347V9.48a1.456 1.456 0 0 0-.355.946v1.418c0 .441.199.851.539 1.129a7.511 7.511 0 0 0 1.234 2.554v1.16a.887.887 0 0 1-.465.782l-3.16 1.726a2.284 2.284 0 0 0-.3.192A10.173 10.173 0 0 1 .8 11.8C.8 6.176 5.375 1.6 11 1.6s10.2 4.575 10.2 10.2a.401.401 0 0 0 .8 0c0-6.067-4.934-11-11-11S0 5.734 0 11.8c0 3.203 1.379 6.09 3.57 8.101l-.011.012.359.3c.023.02.047.036.07.056.192.156.387.304.586.449l.196.14c.214.145.433.286.656.418.05.028.097.059.148.086.246.137.496.27.75.39.02.009.04.017.059.028.836.387 1.726.672 2.66.84.023.004.05.008.074.016.29.047.582.09.88.113l.108.012c.293.023.594.039.895.039.223 0 .398-.18.398-.403A.398.398 0 0 0 11 22zm0 0"/>
</svg>
